!!!!SEGMENT: pl-gd--ee-1638--002-042_marenzio-luca--motettorum-pro-festis-totius-anni-in-dedicatione-templi-o-quam-metuendus.krn
!!!cenid: 15xx:1045
!!!COM: Marenzio, Luca
!!!COM-rismID: pe30003955
!!!CDT: ~1553-1599/08/22
!!!CNT: Italian
!!!GTL: Motettorum pro festis totius anni
!!!OTL: In Dedicatione Templi/O quam metuendus
!!!OMV: 042
!!!PDT: 1588
!!!AGN:
!!!SMS-siglum: PL-GD
!!!SMS-shelfmark: Ee 1638
!!!SMS-variant:
!!!SMS-altvar:
!!!SMS-shelfwork: 002-042 G
!!!NIFC-rismSourceID: 1001202747
!!!NIFC-rismChildID: 990039238
!!!NIFC-islandoraID: pl-gd:57883
!!!URL-pdf-islandora: https://repozytorium.nifc.pl/islandora/object/pl-gd%3A57883/datastream/PDF/view
!!!URL-scan: https://polish.musicsources.pl/pl/lokalizacje/galeria/klocki-introligatorskie/655 @EN{Scan on Polish Music Sources Website} @PL{Skany w portalu Dziedzictwo Muzyki Polskiej w otwartym dostępie}
!!!ONB-nifc: UWAGA: Cantus: s. 637, Altus: s. 485, Tenor: s. 333, Bassus: s. 181
!!!AIN: 1 alto 1 bass 1 soprn 1 tenor
!!!key: a:aeo
**kern	**text	**kern	**text	**kern	**text	**kern	**text
*part4	*part4	*part3	*part3	*part2	*part2	*part1	*part1
*staff4	*staff4	*staff3	*staff3	*staff2	*staff2	*staff1	*staff1
*I"BASSO	*	*I"TENORE	*	*I"ALTUS	*	*I"CANTUS	*
*I'B	*	*I'T	*	*I'A	*	*I'S	*
*ICvox	*	*ICvox	*	*ICvox	*	*ICvox	*
*Ibass	*	*Itenor	*	*Ialto	*	*Isoprn	*
*clefF4	*	*clefC4	*	*clefC3	*	*clefC1	*
*k[b-]	*	*k[b-]	*	*k[b-]	*	*k[b-]	*
*a:aeo	*	*a:aeo	*	*a:aeo	*	*a:aeo	*
*M2/2	*	*M2/2	*	*M2/2	*	*M2/2	*
*met(c|)	*	*met(c|)	*	*met(c|)	*	*met(c|)	*
=1-	=1-	=1-	=1-	=1-	=1-	=1-	=1-
!LO:TX:a:t=In Dedicatione Templi.	!	!LO:TX:a:t=In Dedicatione Templi.	!	!LO:TX:a:t=In Dedicatione Templi.	!	!LO:TX:a:t=In Dedicatione Templi.	!
0r	.	00r	.	1r	.	0e	O
=2-	=2-	=2-	=2-	=2-	=2-	=2-	=2-
.	.	.	.	0A	O	.	.
=3-	=3-	=3-	=3-	=3-	=3-	=3-	=3-
1r	.	.	.	.	.	1e	-Qu-
=4-	=4-	=4-	=4-	=4-	=4-	=4-	=4-
0AA	O	.	.	1A	Qu-	1.cc	-a(m)
=5-	=5-	=5-	=5-	=5-	=5-	=5-	=5-
.	.	0E	O	1.c	-am	.	.
.	.	.	.	.	.	2b-\	me-
=6-	=6-	=6-	=6-	=6-	=6-	=6-	=6-
1AA	Qua(m)	.	.	.	.	1.a	-tu-
.	.	.	.	2d\	me-	.	.
=7-	=7-	=7-	=7-	=7-	=7-	=7-	=7-
1.C	me-	1E	Qua(m)	2.e\	-tu-	.	.
.	.	.	.	.	.	4g/	-en-
.	.	.	.	4f\	-en-	4f/	.
=8-	=8-	=8-	=8-	=8-	=8-	=8-	=8-
.	.	1.c	me-	2g\	.	2e/	.
2D/	-tu-	.	.	2f\	-dus	2a\	dus
=9-	=9-	=9-	=9-	=9-	=9-	=9-	=9-
1E	-en-	.	.	2.e\	eſt	2g/	eſt
.	.	2B-\	-tu-	.	.	1g\	me-
.	.	.	.	4d\	.	.	.
=10-	=10-	=10-	=10-	=10-	=10-	=10-	=10-
1F	-dus	1.A	-en-	0.c	.	.	.
.	.	.	.	.	.	2f/	-tu-
=11-	=11-	=11-	=11-	=11-	=11-	=11-	=11-
0.C	eſt	.	.	.	.	2.e/	-en-
.	.	4G/	.	.	.	.	.
.	.	4F/	.	.	.	4f/	.
=12-	=12-	=12-	=12-	=12-	=12-	=12-	=12-
.	.	2E/	.	.	.	2g/	.
.	.	2A/	-dus	.	.	1f/	-dus
=13-	=13-	=13-	=13-	=13-	=13-	=13-	=13-
.	.	2G/	eſt	1r	.	.	.
.	.	1c\	lo-	.	.	2e/	eſt
=14-	=14-	=14-	=14-	=14-	=14-	=14-	=14-
*	*	*	*	*	*ij	*	*
1r	.	.	.	0A	O	2r	.
!	!	!	!	!	!	!LO:SIC:v:t=custos cc	!
!	!	!	!	!	!	!LO:LB:g=original	!
.	.	2c\	-cus	.	.	1cc\	lo-
=15-	=15-	=15-	=15-	=15-	=15-	=15-	=15-
*	*ij	*	*	*	*	*	*
0F	O	1c	iſ-	.	.	.	.
.	.	.	.	.	.	2cc\	-cus
=16-	=16-	=16-	=16-	=16-	=16-	=16-	=16-
.	.	1F	-te	1A	Quam	0cc	iſ-
=17-	=17-	=17-	=17-	=17-	=17-	=17-	=17-
1F	Qua(m)	2r	.	1.f	me-	.	.
.	.	1A\	lo-	.	.	.	.
=18-	=18-	=18-	=18-	=18-	=18-	=18-	=18-
1.D	me-	.	.	.	.	1f	te
.	.	2A/	-cus	2e\	-tu-	.	.
=19-	=19-	=19-	=19-	=19-	=19-	=19-	=19-
!	!	!LO:SIC:v:t=custos A	!	!	!	!	!
!	!	!	!	!LO:SIC:v:t=custos d	!	!	!
!	!	!LO:LB:g=original	!	!LO:LB:g=original	!	!	!
*	*	*	*	*	*	*	*ij
.	.	1A	iſ-	0d	-en-	1.f	lo-
2C/	-tu-	.	.	.	.	.	.
=20-	=20-	=20-	=20-	=20-	=20-	=20-	=20-
1BB-	-en-	1D	-te	.	.	.	.
.	.	.	.	.	.	2d/	-cus
=21-	=21-	=21-	=21-	=21-	=21-	=21-	=21-
!LO:SIC:v:t=custos AA	!	!	!	!	!	!	!
!LO:LB:g=original	!	!	!	!	!	!	!
1AA	-dus	1r	.	1c#X	-dus	1e	iſ-
=22-	=22-	=22-	=22-	=22-	=22-	=22-	=22-
1D	eſt	0A	O	2d\	eſt	1f	-te/
*	*Xij	*	*	*	*Xij	*	*Xij
.	.	.	.	2f\	lo-	.	.
=23-	=23-	=23-	=23-	=23-	=23-	=23-	=23-
2r	.	.	.	2e\	-cus	0cc	O
1F\	lo-	.	.	1f\	iſ-	.	.
=24-	=24-	=24-	=24-	=24-	=24-	=24-	=24-
.	.	1A	qua(m)	.	.	.	.
2F\	-cus	.	.	2cny/	-te	.	.
=25-	=25-	=25-	=25-	=25-	=25-	=25-	=25-
0.F	iſ-	1.c	me-	2r	.	1cc	qu-
.	.	.	.	1A/	O	.	.
=26-	=26-	=26-	=26-	=26-	=26-	=26-	=26-
.	.	.	.	.	.	1.a	-a(m)
.	.	2d\	-tu-	2A/	qua(m)	.	.
=27-	=27-	=27-	=27-	=27-	=27-	=27-	=27-
.	.	1A	-en-	2f\	me-	.	.
.	.	.	.	2e\	-tu-	2g/	me-
=28-	=28-	=28-	=28-	=28-	=28-	=28-	=28-
1BB-	-te	1B-	-dus	2.d\	-en-	0f	-tu-
.	.	.	.	4d\	-dus	.	.
=29-	=29-	=29-	=29-	=29-	=29-	=29-	=29-
1r	.	2.F/	eſt	2c/	eſt	.	.
.	.	.	.	1d\	lo-	.	.
.	.	4G/	.	.	.	.	.
=30-	=30-	=30-	=30-	=30-	=30-	=30-	=30-
1r	.	1A	.	.	.	1e	-en-
.	.	.	.	4c/	.	.	.
.	.	.	.	4B-/	.	.	.
=31-	=31-	=31-	=31-	=31-	=31-	=31-	=31-
0D	O	2r	.	2A/	.	2f/	-dus
.	.	1d\	lo-	2F/	-cus	1a\	eſt
!	!	!	!	!LO:SIC:v:t=custos B-	!	!	!
!	!	!	!	!LO:LB:g=original	!	!	!
=32-	=32-	=32-	=32-	=32-	=32-	=32-	=32-
.	.	.	.	1B-	iſ-	.	.
.	.	2d\	-cus	.	.	1g\	me-
=33-	=33-	=33-	=33-	=33-	=33-	=33-	=33-
1D	qua(m)	1d	iſ-	1A	-te	.	.
.	.	.	.	.	.	1f/	-tu-
=34-	=34-	=34-	=34-	=34-	=34-	=34-	=34-
1.B-	me-	0G	-te	1r	.	.	.
.	.	.	.	.	.	2e/	-en-
=35-	=35-	=35-	=35-	=35-	=35-	=35-	=35-
.	.	.	.	0B-	o	0d	-dus
2A\	-tu-	.	.	.	.	.	.
=36-	=36-	=36-	=36-	=36-	=36-	=36-	=36-
1.G	-en-	2r	.	.	.	.	.
.	.	1d\	me-	.	.	.	.
=37-	=37-	=37-	=37-	=37-	=37-	=37-	=37-
.	.	.	.	1B-	qua(m)	1.dd	eſt
4F\	.	2e\	-tu-	.	.	.	.
4E\	.	.	.	.	.	.	.
=38-	=38-	=38-	=38-	=38-	=38-	=38-	=38-
1D	.	1f	-en-	1.d	me-	.	.
.	.	.	.	.	.	2cc\	me-
!	!	!	!	!	!	!LO:SIC:v:t=custos b-	!
!	!	!	!	!	!	!LO:LB:g=original	!
=39-	=39-	=39-	=39-	=39-	=39-	=39-	=39-
1G	-dus	1B-	-dus	.	.	2.b-\	-tu-
.	.	.	.	2e\	-tu-	.	.
.	.	.	.	.	.	4b-\	-en-
=40-	=40-	=40-	=40-	=40-	=40-	=40-	=40-
1F	eſt	2c\	eſt	1f	-en-	2a\	-dus
.	.	4B-\	.	.	.	1dd\	eſt
.	.	4A\	.	.	.	.	.
=41-	=41-	=41-	=41-	=41-	=41-	=41-	=41-
2r	.	1G	.	1g	-dus	.	.
1B-\	lo-	.	.	.	.	2dd\	lo-
=42-	=42-	=42-	=42-	=42-	=42-	=42-	=42-
.	.	1r	.	2.d\	eſt	0dd	-cus-
2B-\	-cus	.	.	.	.	.	.
.	.	.	.	4e\	.	.	.
!LO:SIC:v:t=custos B-	!	!	!	!	!	!	!
!LO:LB:g=original	!	!	!	!	!	!	!
!	!	!LO:SIC:v:t=custos G	!	!	!	!	!
!	!	!LO:LB:g=original	!	!	!	!	!
=43-	=43-	=43-	=43-	=43-	=43-	=43-	=43-
1B-	iſ-	1r	.	1f	.	.	.
=44-	=44-	=44-	=44-	=44-	=44-	=44-	=44-
0.E-X	-te	0G	O	2r	.	2.g/	-iſte
.	.	.	.	1g\	lo-	.	.
.	.	.	.	.	.	4a\	.
=45-	=45-	=45-	=45-	=45-	=45-	=45-	=45-
.	.	.	.	.	.	1b-	.
.	.	.	.	2g\	-cus	.	.
=46-	=46-	=46-	=46-	=46-	=46-	=46-	=46-
.	.	1G	qua(m)	1g	iſ-	2r	.
.	.	.	.	.	.	1g\	lo-
=47-	=47-	=47-	=47-	=47-	=47-	=47-	=47-
1r	.	1.e-X	me-	1.c	-te	.	.
.	.	.	.	.	.	2g/	-cus
=48-	=48-	=48-	=48-	=48-	=48-	=48-	=48-
*	*ij	*	*	*	*	*	*
0C	lo-	.	.	.	.	1g	iſ-
.	.	2d\	-tu-	4B-/	.	.	.
.	.	.	.	4A/	.	.	.
=49-	=49-	=49-	=49-	=49-	=49-	=49-	=49-
.	.	2c\	-en-	2G/	.	1e	-te
.	.	4B-\	.	1g\	lo-	.	.
.	.	4A\	.	.	.	.	.
=50-	=50-	=50-	=50-	=50-	=50-	=50-	=50-
*	*	*	*	*	*	*	*ij
1C	-cus	2G/	.	.	.	1.cc	lo-
.	.	2A/	-dus	1f\	-cus	.	.
=51-	=51-	=51-	=51-	=51-	=51-	=51-	=51-
00C	iſ-	1G	eſt	.	.	.	.
!	!	!	!	!LO:SIC:v:t=custos e 	!	!	!
!	!	!	!	!LO:LB:g=original	!	!	!
.	.	.	.	2.e\	i-	2cc\	-cus
=52-	=52-	=52-	=52-	=52-	=52-	=52-	=52-
.	.	2.G/	lo-	.	.	0.cc	iſ-
.	.	.	.	4d\	.	.	.
.	.	.	.	4e\	.	.	.
.	.	4F/	.	4f\	.	.	.
=53-	=53-	=53-	=53-	=53-	=53-	=53-	=53-
.	.	2E/	.	2g\	.	.	.
.	.	2A/	-cus	2.f\	.	.	.
=54-	=54-	=54-	=54-	=54-	=54-	=54-	=54-
.	.	1G	iſ-	.	.	.	.
.	.	.	.	8e\	.	.	.
.	.	.	.	8d\	.	.	.
.	.	.	.	2e\	.	.	.
=55-	=55-	=55-	=55-	=55-	=55-	=55-	=55-
2FF/	-te	2F/	-te	2.f\	-ſte	1a	-te
*	*Xij	*	*	*	*	*	*Xij
2.F\	ve-	2.A/	ve-	.	.	.	.
.	.	.	.	8e\	.	.	.
.	.	.	.	8d\	.	.	.
=56-	=56-	=56-	=56-	=56-	=56-	=56-	=56-
.	.	.	.	1c	.	1r	.
4F\	-re	4A/	-re	.	.	.	.
2Eny\	non	2G/	non	.	.	.	.
=57-	=57-	=57-	=57-	=57-	=57-	=57-	=57-
2F\	hic	2A/	eſt	00r	.	1r	.
2G\	a-	2B-\	hic	.	.	.	.
=58-	=58-	=58-	=58-	=58-	=58-	=58-	=58-
2.A\	-li-	2.c\	ali-	.	.	2r	.
.	.	.	.	.	.	2.a\	ve-
4A\	-ud	4c\	.	.	.	.	.
!	!	!LO:SIC:v:t=custos A	!	!	!	!	!
!	!	!LO:LB:g=original	!	!	!	!	!
=59-	=59-	=59-	=59-	=59-	=59-	=59-	=59-
2F\	ni-	2A/	-ud	.	.	.	.
.	.	.	.	.	.	4a\	-re
1B-\	.	1d\	ni-	.	.	2f/	non
!	!	!	!	!	!	!LO:SIC:v:t=custos g	!
!	!	!	!	!	!	!LO:LB:g=original	!
=60-	=60-	=60-	=60-	=60-	=60-	=60-	=60-
.	.	.	.	.	.	2g/	eſt
2A\	-ſi	2c\	-ſi	.	.	2a\	hic
=61-	=61-	=61-	=61-	=61-	=61-	=61-	=61-
1.G	do-	2B-\	do-	2r	.	2.b-\	al-
.	.	2d\	-mus	2.B-/	ve-	.	.
.	.	.	.	.	.	4b-\	-iud
=62-	=62-	=62-	=62-	=62-	=62-	=62-	=62-
.	.	1d	De-	.	.	2g/	.
.	.	.	.	4B-/	-re	.	.
2F\	-mus	.	.	2A/	non	1dd\	ni-
=63-	=63-	=63-	=63-	=63-	=63-	=63-	=63-
1E-X	De-	1G	-i	2B-/	eſt	.	.
.	.	.	.	2c/	hic	2cc\	ſi
!LO:SIC:v:t=custos D	!	!	!	!	!	!	!
!LO:LB:g=original	!	!	!	!	!	!	!
=64-	=64-	=64-	=64-	=64-	=64-	=64-	=64-
1D	i	2r	.	2.d\	al-	2b-\	do-
.	.	2.A/	ve-	.	.	2a\	-mus
.	.	.	.	4d\	-iud	.	.
=65-	=65-	=65-	=65-	=65-	=65-	=65-	=65-
1r	.	.	.	2c/	ni-	2.cc\	De-
.	.	4A/	-re	.	.	.	.
.	.	2F/	non	1f\	.	.	.
.	.	.	.	.	.	4a\	.
=66-	=66-	=66-	=66-	=66-	=66-	=66-	=66-
1r	.	2G/	eſt	.	.	2b-\	.
.	.	2A/	hic	2e\	-ſi	4a\	.
.	.	.	.	.	.	4g/	.
!	!	!	!	!LO:SIC:v:t=custos d	!	!	!
!	!	!	!	!LO:LB:g=original	!	!	!
=67-	=67-	=67-	=67-	=67-	=67-	=67-	=67-
2r	.	2.B-\	a-	1.d	do-	4f/	.
.	.	.	.	.	.	4e/	.
2.BB-/	ve-	.	.	.	.	4d/	.
.	.	8A/	.	.	.	4e/	.
.	.	8G/	.	.	.	.	.
=68-	=68-	=68-	=68-	=68-	=68-	=68-	=68-
.	.	4F/	.	.	.	4f/	.
4BB-/	-re	4G/	.	.	.	4d/	.
2AA/	non	4A/	.	2c/	-mus	2.f/	.
.	.	4F/	.	.	.	.	.
=69-	=69-	=69-	=69-	=69-	=69-	=69-	=69-
2BB-/	eſt	2.G/	.	1B-	De-	.	.
.	.	.	.	.	.	8e/	.
.	.	.	.	.	.	8d/	.
2C/	hic	.	.	.	.	2e/	.
.	.	4G/	-li-	.	.	.	.
=70-	=70-	=70-	=70-	=70-	=70-	=70-	=70-
2.D/	a-	2F/	-ud	2A/	-i	0f	-i
.	.	1B-\	ni-	1d\	ni-	.	.
4D/	-li-	.	.	.	.	.	.
=71-	=71-	=71-	=71-	=71-	=71-	=71-	=71-
2BB-/	-ud	.	.	.	.	.	.
1F\	ni-	2A/	-ſi	2c/	-ſi	.	.
!	!	!LO:SIC:v:t=custos G	!	!	!	!	!
!	!	!LO:LB:g=original	!	!	!	!	!
=72-	=72-	=72-	=72-	=72-	=72-	=72-	=72-
.	.	2.G/	do-	1c	do-	1r	.
2Eny\	-ſi	.	.	.	.	.	.
.	.	4A/	.	.	.	.	.
=73-	=73-	=73-	=73-	=73-	=73-	=73-	=73-
1.D	do-	2B-\	.	2.F/	-mus	2r	.
!	!	!	!	!	!	!LO:SIC:v:t=custos f	!
!	!	!	!	!	!	!LO:LB:g=original	!
.	.	4A/	.	.	.	2.f/	ve-
.	.	4G/	.	4G/	.	.	.
=74-	=74-	=74-	=74-	=74-	=74-	=74-	=74-
.	.	4F/	.	1A	.	.	.
.	.	4D/	.	.	.	4f/	-re
2C/	-mus	1A\	.	.	.	2e/	non
=75-	=75-	=75-	=75-	=75-	=75-	=75-	=75-
1BB-	De-	.	.	1d	De-	2f/	eſt
.	.	1G/	mus	.	.	2g/	hic
=76-	=76-	=76-	=76-	=76-	=76-	=76-	=76-
1AA	-i	.	.	1c	-i	2.a\	al-
.	.	1F/	De-	.	.	.	.
.	.	.	.	.	.	4a\	-iud
=77-	=77-	=77-	=77-	=77-	=77-	=77-	=77-
1C	et	.	.	2r	.	1g	.
.	.	2E/	-i	1e#X\	ni-	.	.
=78-	=78-	=78-	=78-	=78-	=78-	=78-	=78-
1C	por-	1r	.	.	.	2cc\	ni-
.	.	.	.	2d\	-ſi	2b-\	-ſi
=79-	=79-	=79-	=79-	=79-	=79-	=79-	=79-
1C	-ta	1c	et	2c/	do-	2a\	do-
.	.	.	.	2B-/	-mus	2g/	-mus
!LO:SIC:v:t=custos FF	!	!	!	!	!	!	!
!LO:LB:g=original	!	!	!	!	!	!	!
=80-	=80-	=80-	=80-	=80-	=80-	=80-	=80-
4FF/	cae-	1c	por-	1A	De-	1f	De-
4GG/	.	.	.	.	.	.	.
4AA/	.	.	.	.	.	.	.
4BB-/	.	.	.	.	.	.	.
=81-	=81-	=81-	=81-	=81-	=81-	=81-	=81-
4C/	.	1c	-ta	1G	-i	1e	-i
4D/	.	.	.	.	.	.	.
4E\	.	.	.	.	.	.	.
4F\	.	.	.	.	.	.	.
=82-	=82-	=82-	=82-	=82-	=82-	=82-	=82-
1G	.	1B-	cae-	1r	.	1r	.
=83-	=83-	=83-	=83-	=83-	=83-	=83-	=83-
1D	-li	1A	-li	2r	.	2r	.
.	.	.	.	2.d\	ve-	2.f/	ve-
=84-	=84-	=84-	=84-	=84-	=84-	=84-	=84-
1r	.	1r	.	.	.	.	.
.	.	.	.	4d\	-re	4f/	-re
!	!	!	!	!LO:SIC:v:t=custos c	!	!	!
!	!	!	!	!LO:LB:g=original	!	!	!
.	.	.	.	2c/	non	2e/	non
=85-	=85-	=85-	=85-	=85-	=85-	=85-	=85-
1r	.	1r	.	2d\	eſt	2f/	eſt
.	.	.	.	2eny\	hic	2g/	hic
=86-	=86-	=86-	=86-	=86-	=86-	=86-	=86-
2r	.	2r	.	2.f\	al-	2.a\	ali-
2.F\	ve-	2.A/	ve-	.	.	.	.
!	!	!	!	!	!	!LO:SIC:v:t=custos cc	!
!	!	!	!	!	!	!LO:LB:g=original	!
.	.	.	.	4f\	-iud	4a\	-ud
=87-	=87-	=87-	=87-	=87-	=87-	=87-	=87-
.	.	.	.	1c	.	1cc	.
4F\	-re	4A/	-re	.	.	.	.
2E\	non	2G/	non	.	.	.	.
=88-	=88-	=88-	=88-	=88-	=88-	=88-	=88-
2F\	eſt	2A/	eſt	1r	.	1r	.
2G\	hic	2B-\	hic	.	.	.	.
=89-	=89-	=89-	=89-	=89-	=89-	=89-	=89-
2.A\	a-	2.c\	ali-	2r	.	2r	.
.	.	.	.	1a\	ni-	1cc\	ni-
4A\	-li-	4c\	.	.	.	.	.
!	!	!LO:SIC:v:t=custos A	!	!	!	!	!
!	!	!LO:LB:g=original	!	!	!	!	!
=90-	=90-	=90-	=90-	=90-	=90-	=90-	=90-
0F	-ud	0A	-ud	.	.	.	.
.	.	.	.	2g\	ſi	2b-\	-ſi
=91-	=91-	=91-	=91-	=91-	=91-	=91-	=91-
.	.	.	.	2f\	do-	2a\	do-
.	.	.	.	2e\	-mus	2g/	-mus
=92-	=92-	=92-	=92-	=92-	=92-	=92-	=92-
1.B-	ni-	2r	.	4d\	De-	0f	De-
.	.	.	.	4c/	.	.	.
.	.	1d\	ni-	4B-/	.	.	.
.	.	.	.	4c/	.	.	.
=93-	=93-	=93-	=93-	=93-	=93-	=93-	=93-
.	.	.	.	4d\	.	.	.
.	.	.	.	4e\	.	.	.
2A\	-ſi	2c\	ſi	4f\	.	.	.
.	.	.	.	4c/	.	.	.
!LO:SIC:v:t=custos G	!	!	!	!	!	!	!
!LO:LB:g=original	!	!	!	!	!	!	!
=94-	=94-	=94-	=94-	=94-	=94-	=94-	=94-
2G\	do-	2B-\	do-	4e-X\	.	0g	-i
.	.	.	.	4d\	.	.	.
2F\	-mus	2A/	-mus	1d\	.	.	.
=95-	=95-	=95-	=95-	=95-	=95-	=95-	=95-
1E-X	De-	1G	De-	.	.	.	.
.	.	.	.	2c/	.	.	.
!	!	!	!	!LO:SIC:v:t=custos d	!	!	!
!	!	!	!	!LO:LB:g=original	!	!	!
=96-	=96-	=96-	=96-	=96-	=96-	=96-	=96-
2D/	-i	1F	-i	4d\	-i	2r	.
.	.	.	.	8c/	.	.	.
.	.	.	.	8B-/	.	.	.
*	*	*	*	*	*	*	*ij
1F\	ni-	.	.	4A/	.	1a\	ni-
.	.	.	.	4B-/	.	.	.
=97-	=97-	=97-	=97-	=97-	=97-	=97-	=97-
.	.	1A	et	1c	.	.	.
2Eny\	-ſi	.	.	.	.	2g/	-ſi
=98-	=98-	=98-	=98-	=98-	=98-	=98-	=98-
1.D	do-	1A	por-	1r	.	1.f	do-
=99-	=99-	=99-	=99-	=99-	=99-	=99-	=99-
.	.	1A	-ta	1r	.	.	.
2C/	-mus	.	.	.	.	2e/	-mus
=100-	=100-	=100-	=100-	=100-	=100-	=100-	=100-
1BB-	De-	4D/	cae-	1r	.	1d	De-
.	.	4E/	.	.	.	.	.
.	.	4F/	.	.	.	.	.
.	.	4G/	.	.	.	.	.
=101-	=101-	=101-	=101-	=101-	=101-	=101-	=101-
1AA	-i	4A/	.	2r	.	2c/	-i/
.	.	4G/	.	.	.	.	.
.	.	4F/	.	1A/	/ni-	1cc\	ni-
*	*	*	*	*	*	*	*Xij
.	.	4E/	.	.	.	.	.
=102-	=102-	=102-	=102-	=102-	=102-	=102-	=102-
1D	et	2F/	.	.	.	.	.
.	.	2G/	-li	2G/	-ſi	2b-\	ſi
=103-	=103-	=103-	=103-	=103-	=103-	=103-	=103-
1D	por-	2A/	ni-	2F/	do-	2a\	do-
.	.	1d\	-ſi	2B-/	-mus	1g\	-mus
=104-	=104-	=104-	=104-	=104-	=104-	=104-	=104-
1D	-ta	.	.	1A	De-	.	.
.	.	2c\	do-	.	.	2f#X/	De-
=105-	=105-	=105-	=105-	=105-	=105-	=105-	=105-
4GG/	cae-	1.B-	-mus	2G/	i/	1g	-i/
4AA/	.	.	.	.	.	.	.
4BB-/	.	.	.	2d\	et	.	.
4C/	.	.	.	.	.	.	.
=106-	=106-	=106-	=106-	=106-	=106-	=106-	=106-
4D/	.	.	.	1.f	por-	1r	.
4E\	.	.	.	.	.	.	.
2F\	.	2A/	.	.	.	.	.
!	!	!LO:SIC:v:t=custos G	!	!	!	!	!
!	!	!LO:LB:g=original	!	!	!	!	!
=107-	=107-	=107-	=107-	=107-	=107-	=107-	=107-
1C	-li	1G	De-	.	.	1cc	et
.	.	.	.	2eny\	-ta	.	.
=108-	=108-	=108-	=108-	=108-	=108-	=108-	=108-
1r	.	1F	-i	4a\	cae-	1cc	por-
.	.	.	.	4g\	.	.	.
.	.	.	.	4f\	.	.	.
.	.	.	.	4e\	.	.	.
!LO:SIC:v:t=custos F	!	!	!	!	!	!	!
!	!	!	!	!	!	!LO:SIC:v:t=custos cc	!
!LO:LB:g=original	!	!	!	!	!	!LO:LB:g=original	!
=109-	=109-	=109-	=109-	=109-	=109-	=109-	=109-
1F	et	2r	.	2f\	.	1cc	-ta
.	.	2A/	et	2c/	li	.	.
=110-	=110-	=110-	=110-	=110-	=110-	=110-	=110-
1F	por-	1A	por-	2r	.	4fny/	coe-
.	.	.	.	.	.	4g/	.
!	!	!	!	!LO:SIC:v:t=custos f	!	!	!
!	!	!	!	!LO:LB:g=original	!	!	!
.	.	.	.	2f\	et	4a\	.
.	.	.	.	.	.	4b-\	.
=111-	=111-	=111-	=111-	=111-	=111-	=111-	=111-
1F	-ta	1A	-ta	1f	por-	2.cc\	.
.	.	.	.	.	.	4a\	.
=112-	=112-	=112-	=112-	=112-	=112-	=112-	=112-
4BB-/	cae-	4D/	cae-	1f	-ta	4b-\	.
4C/	.	4E/	.	.	.	4a\	.
4D/	.	4F/	.	.	.	2.a\	.
4E\	.	4G/	.	.	.	.	.
=113-	=113-	=113-	=113-	=113-	=113-	=113-	=113-
4F\	.	4A/	.	1c	cae-	.	.
4G\	.	4B-\	.	.	.	8g/	.
.	.	.	.	.	.	8f/	.
2A\	.	1c\	.	.	.	4e/	.
.	.	.	.	.	.	4f/	.
=114-	=114-	=114-	=114-	=114-	=114-	=114-	=114-
1G	-li	.	.	1d	-li	1g	.
!	!	!LO:N:acc=#	!	!	!	!	!
.	.	2Bn\	li	.	.	.	.
=115-	=115-	=115-	=115-	=115-	=115-	=115-	=115-
*	*ij	*	*	*	*ij	*	*
1C	et	2r	.	2r	.	1g	(li)
.	.	2c\	/et	2e\	et-	.	.
=116-	=116-	=116-	=116-	=116-	=116-	=116-	=116-
1C	por-	1c	por-	1e	-por-	2r	.
*	*	*	*	*	*	*	*ij
.	.	.	.	.	.	2g/	et
=117-	=117-	=117-	=117-	=117-	=117-	=117-	=117-
1C	-ta	1c	-ta	1e	-ta	1g	por-
=118-	=118-	=118-	=118-	=118-	=118-	=118-	=118-
4GG/	cae-	1B-	cae-	0.d	cae-	1g	-ta
4AA/	.	.	.	.	.	.	.
4BB-/	.	.	.	.	.	.	.
4C/	.	.	.	.	.	.	.
=119-	=119-	=119-	=119-	=119-	=119-	=119-	=119-
0D	.	00A	-li	.	.	0f	cae-
=120-	=120-	=120-	=120-	=120-	=120-	=120-	=120-
.	.	.	.	.	.	.	.
=121-	=121-	=121-	=121-	=121-	=121-	=121-	=121-
00AA	li	.	.	00c#X	-li	00e	-(li)/
*	*Xij	*	*	*	*Xij	*	*Xij
=122-	=122-	=122-	=122-	=122-	=122-	=122-	=122-
.	.	.	.	.	.	.	.
=123-	=123-	=123-	=123-	=123-	=123-	=123-	=123-
.	.	1r	.	.	.	.	.
=124-	=124-	=124-	=124-	=124-	=124-	=124-	=124-
.	.	1r	.	.	.	.	.
=-	=-	=-	=-	=-	=-	=-	=-
*-	*-	*-	*-	*-	*-	*-	*-
!!!system-decoration: [(s1,s2,s3,s4)]
!!!ENC: Marta Opryszak
!!!END: 2022-07-06
!!!ENC: Urszula Świątek
!!!END: 2022-07-28
!!!YEC: Copyright 2022 Narodowy Instytut Fryderyka Chopina (https://polishscores.org)
!!!YEM: License CC-BY-4.0 (https://creativecommons.org/licenses/by/4.0)
